!!!!SEGMENT: pl-gd--ee-2628--007-001_stabile-annibale--sacrarum-modulationum-obsecro-domine.krn
!!!cenid: 15xx:1090
!!!COM: Stabile, Annibale
!!!COM-rismID: pe30009662
!!!CDT: ~1535-1595/04
!!!CNT: Italian
!!!GTL: Sacrarum modulationum
!!!OTL: Obsecro Domine
!!!OMV: 001
!!!PDT: 1585
!!!AGN:
!!!SMS-siglum: PL-GD
!!!SMS-shelfmark: Ee 2628
!!!SMS-shelfwork: 007-001 G
!!!SMS-variant:
!!!SMS-altvar:
!!!NIFC-rismSourceID: 990060529
!!!NIFC-islandoraID: pl-gd:66139
!!!URL-pdf-islandora: https://repozytorium.nifc.pl/islandora/object/pl-gd%3A66139/datastream/PDF/view
!!!URL-scan: https://polish.musicsources.pl/pl/lokalizacje/galeria/klocki-introligatorskie/673 @EN{Scan on Polish Music Sources Website} @PL{Skany w portalu Dziedzictwo Muzyki Polskiej w otwartym dostępie}
!!!ONB-nifc: UWAGA: Cantus: s. 102-113, Tenore: s. 258-269, Basso: s. 414-425, Quinto: s. 736-747, Sextus: s. 624-632. Dla głosu Alto proszę skorzystać z https://pbc.gda.pl/dlibra/publication/87583/edition/79412/content, s. 25-48. Uwaga: utwory podzielone wg spisu treści dostępnych na końcu ksiąg – proszę sprawdzać sąsiednie tytuły i zwracać uwagę na liczbę głosów. Głosy Quinto i Sextus proszę umieszczać wg ambitusu (może się różnić w zależności od utworu).
!!!AIN: 1 alto 1 bass 1 soprn 1 tenor 1 vox
!!!key: g
**kern	**text	**kern	**text	**kern	**text	**kern	**text	**kern	**text
*part5	*part5	*part4	*part4	*part3	*part3	*part2	*part2	*part1	*part1
*staff5	*staff5	*staff4	*staff4	*staff3	*staff3	*staff2	*staff2	*staff1	*staff1
*I"BASSVS	*	*I"TENORE	*	*I"ALTO	*	*I"QVINTO	*	*I"CANTO	*
*I'B	*	*I'T	*	*I'A	*	*I'V	*	*I'S	*
*ICvox	*	*ICvox	*	*ICvox	*	*ICvox	*	*ICvox	*
*Ibass	*	*Itenor	*	*Ialto	*	*Ivox	*	*Isoprn	*
*clefF3	*	*clefC3	*	*clefC2	*	*clefC2	*	*clefG2	*
*k[b-]	*	*k[b-]	*	*k[b-]	*	*k[b-]	*	*k[b-]	*
*g:	*	*g:	*	*g:	*	*g:	*	*g:	*
*M2/1	*	*M2/1	*	*M2/1	*	*M2/1	*	*M2/1	*
*met(C)	*	*met(C)	*	*met(C)	*	*met(C)	*	*met(C)	*
=1-	=1-	=1-	=1-	=1-	=1-	=1-	=1-	=1-	=1-
!LO:TX:t=P:problem:podwójnie zapisany znak przykluczowy: BB- B-	!	!	!	!	!	!	!	!	!
!	!	!	!	!LO:TX:t=P:problem:podwójnie zapisany znak przykluczowy: B- b-	!	!	!	!	!
!	!	!	!	!LO:TX:b:t=SAncte Pater.	!	!LO:TX:t=P:problem:podwójnie zapisany znak przykluczowy: B- b-	!	!	!
!	!	!	!	!	!	!	!	!LO:TX:t=P:problem:Brak w głosie Sextus tego utworu	!
00r	.	00r	.	00r	.	0g	SAn-	0r	.
=2-	=2-	=2-	=2-	=2-	=2-	=2-	=2-	=2-	=2-
.	.	.	.	.	.	1f#X	-Cte	1r	.
.	.	.	.	.	.	1g	Pa-	0dd	SAnC-
=3-	=3-	=3-	=3-	=3-	=3-	=3-	=3-	=3-	=3-
00r	.	00r	.	0r	.	1d	-ter	.	.
.	.	.	.	.	.	2r	.	1g	-te
.	.	.	.	.	.	2g\	qui	.	.
=4-	=4-	=4-	=4-	=4-	=4-	=4-	=4-	=4-	=4-
.	.	.	.	1r	.	2g\	lu-	1ee-X	Pa-
.	.	.	.	.	.	2a\	-ce	.	.
.	.	.	.	2r	.	2.b-\	De-	1dd	-ter
.	.	.	.	2g\	Qui	.	.	.	.
.	.	.	.	.	.	4a\	.	.	.
=5-	=5-	=5-	=5-	=5-	=5-	=5-	=5-	=5-	=5-
00r	.	0r	.	2g\	lu-	2g\	.	2r	.
.	.	.	.	2a\	-ce	2f#X\	.	2dd\	qui
.	.	.	.	1.b-	De-	1g	-i	2dd\	lu-
.	.	.	.	.	.	.	.	2eeny\	-ce
=6-	=6-	=6-	=6-	=6-	=6-	=6-	=6-	=6-	=6-
.	.	0d	SanC-	.	.	0r	.	2ff#X\	De-
.	.	.	.	4a\	.	.	.	1gg	.
.	.	.	.	4g\	.	.	.	.	.
.	.	.	.	1a	.	.	.	.	.
.	.	.	.	.	.	.	.	2ff#\	.
=7-	=7-	=7-	=7-	=7-	=7-	=7-	=7-	=7-	=7-
00r	.	1G	-te	2g\	-i	2r	.	2ee-X\	.
*	*	*	*	*	*ij	*	*ij	*	*
.	.	.	.	1b-	Qui	2G/	SAn-	1dd	.
.	.	1e-X	Pa-	.	.	2G/	-Cte	.	.
.	.	.	.	4a\	lu-	2A/	Pa-	2cc\	.
.	.	.	.	4g\	-ce	.	.	.	.
=8-	=8-	=8-	=8-	=8-	=8-	=8-	=8-	=8-	=8-
.	.	1d	-ter	2f\	De-	2.B-/	-ter	0dd	-i
.	.	.	.	1b-	.	.	.	.	.
.	.	.	.	.	.	4c/	qui	.	.
.	.	2r	.	.	.	4d/	lu-	.	.
.	.	.	.	.	.	4e/	-ce	.	.
*	*	*	*	*	*	*custos:f	*	*	*
!	!	!	!	!	!	!LO:LB:g=original	!	!	!
.	.	2d\	qui	4a\	.	2.fny\	De-	.	.
.	.	.	.	4g\	.	.	.	.	.
=9-	=9-	=9-	=9-	=9-	=9-	=9-	=9-	=9-	=9-
0r	.	2d\	lu-	4a\	.	.	.	0r	.
.	.	.	.	4b-\	.	8e\	.	.	.
.	.	.	.	.	.	8d/	.	.	.
.	.	2eny\	-ce	4cc\	.	2c/	.	.	.
.	.	.	.	4a\	.	.	.	.	.
*	*	*	*	*custos:b-	*	*	*	*	*
!	!	!	!	!LO:LB:g=original	!	!	!	!	!
.	.	2f\	De-	2.b-\	.	0.d	-i	.	.
.	.	1g\	.	.	.	.	.	.	.
.	.	.	.	8a\	.	.	.	.	.
.	.	.	.	8g\	.	.	.	.	.
=10-	=10-	=10-	=10-	=10-	=10-	=10-	=10-	=10-	=10-
1r	.	.	.	2a\	.	.	.	2r	.
.	.	2f#X\	.	2a\	.	.	.	1dd	San-
0G	SAnC-	1g	-i	1.b-	.	.	.	.	.
.	.	.	.	.	.	.	.	1g/	-Cte
*	*	*	*	*	*	*	*Xij	*custos:b-	*
!	!	!	!	!	!	!	!	!LO:LB:g=original	!
=11-	=11-	=11-	=11-	=11-	=11-	=11-	=11-	=11-	=11-
.	.	0r	.	.	.	2r	.	.	.
.	.	.	.	2g\	i	2d/	qui	2.b-/	Pa-
1F#X	-te	.	.	2r	.	2.d/	lu-	.	.
*	*	*	*	*	*Xij	*	*	*	*
.	.	.	.	.	.	.	.	4a/	.
.	.	.	.	2a\	SanC-	.	.	1a/	.
.	.	.	.	.	.	4c/	-ce	.	.
=12-	=12-	=12-	=12-	=12-	=12-	=12-	=12-	=12-	=12-
1G	Pa-	1r	.	1d	-te	1B-	De-	.	.
.	.	.	.	.	.	.	.	2g/	.
0D	-ter	0d	SanC-	0f#X	Pa-	2A/	-i	1a	-ter
.	.	.	.	.	.	1a\	San-	.	.
=13-	=13-	=13-	=13-	=13-	=13-	=13-	=13-	=13-	=13-
.	.	.	.	.	.	.	.	1r	.
.	.	.	.	.	.	1d	-Cte	.	.
*	*	*	*	*	*	*	*	*	*ij
00r	.	1G	-te	1g	-ter	.	.	1dd	San-
.	.	.	.	.	.	1b-\	Pa-	.	.
=14-	=14-	=14-	=14-	=14-	=14-	=14-	=14-	=14-	=14-
.	.	1e-X	Pa-	0r	.	.	.	2g/	-Cte
.	.	.	.	.	.	4a\	.	1b-	Pa-
.	.	.	.	.	.	4g\	.	.	.
.	.	0d	-ter	.	.	2f\	.	.	.
.	.	.	.	.	.	2.g\	.	4a/	.
.	.	.	.	.	.	.	.	4g/	.
*	*	*custos:G	*	*	*	*	*	*	*
!	!	!LO:LB:g=original	!	!	!	!	!	!	!
=15-	=15-	=15-	=15-	=15-	=15-	=15-	=15-	=15-	=15-
.	.	.	.	2r	.	.	.	1a	.
.	.	.	.	.	.	4f#X\	.	.	.
.	.	.	.	2d/	qui	2f#\	.	.	.
2r	.	2G/	qui	1d	lu-	2g\	-ter	1g	-ter
*	*	*	*	*	*	*custos:b-	*	*	*Xij
!	!	!	!	!	!	!LO:PB:g=original	!	!	!
!	!	!	!	!	!	!LO:TX:a:t=Ad SIXTVM V. Pont.Max.	!	!	!
2G\	qui	1d\	lu-	.	.	1b-\	qui	.	.
=16-	=16-	=16-	=16-	=16-	=16-	=16-	=16-	=16-	=16-
2G\	lu-	.	.	2e/	-ce	.	.	1r	.
2A\	-ce	2c/	-ce	2.fny\	De-	4a\	.	.	.
.	.	.	.	.	.	4g\	.	.	.
2.B-\	De-	2d\	De-	.	.	2fny\	.	2r	.
.	.	.	.	4e/	.	.	.	.	.
.	.	2.fny\	.	2.d/	.	2b-\	lu-	2dd\	qui
8A\	.	.	.	.	.	.	.	.	.
8G\	.	.	.	.	.	.	.	.	.
=17-	=17-	=17-	=17-	=17-	=17-	=17-	=17-	=17-	=17-
2Fny\	.	.	.	.	.	2a\	-ce	1dd	lu-
.	.	4eny\	.	4c/	.	.	.	.	.
2G\	.	2.d\	.	4B-/	.	1g	De-	.	.
.	.	.	.	4A/	.	.	.	.	.
*custos:E	*	*	*	*custos:G	*	*	*	*	*
!LO:LB:g=original	!	!	!	!LO:PB:g=original	!	!	!	!	!
*	*	*	*	*lig	*	*	*	*	*
1E	.	.	.	1G	.	.	.	1eeny	-ce
.	.	8c#X/	.	.	.	.	.	.	.
!	!	!LO:N:acc=#	!	!	!	!	!	!	!
.	.	8Bn/	.	.	.	.	.	.	.
.	.	2c#X/	.	.	.	2e/	-i	.	.
=18-	=18-	=18-	=18-	=18-	=18-	=18-	=18-	=18-	=18-
1D	-i	2d\	-i	1A	.	2r	.	1ffny	De-
.	.	2d\	per-	.	.	2a\	per-	.	.
*	*	*	*	*Xlig	*	*	*	*	*
!	!	!	!	!LO:TX:a:t=Ad SIXTVM V.  Pont.Max.	!	!	!	!	!
!	!	!	!	!	!	!LO:N:acc=#	!	!	!
00r	.	1g	-fu-	2G/	-i	1bn	-fu-	2dd\	-i
*	*	*	*	*	*ij	*	*	*	*
.	.	.	.	2g\	qui	.	.	2dd\	per-
=19-	=19-	=19-	=19-	=19-	=19-	=19-	=19-	=19-	=19-
.	.	2cny/	-ſus	2g\	lu-	1cc	-ſus	1ee-X	-fu-
.	.	2c/	in	2a\	-ce	.	.	.	.
.	.	2.g\	al-	2b-\	De-	0r	.	2dd\	-ſus
.	.	.	.	1b-\	-i	.	.	2dd\	in
.	.	4f\	.	.	.	.	.	.	.
*	*	*	*	*	*Xij	*	*	*	*
=20-	=20-	=20-	=20-	=20-	=20-	=20-	=20-	=20-	=20-
.	.	1e-X	.	.	.	.	.	1gg	al-
.	.	.	.	2g\	per-	.	.	.	.
*	*	*	*	*	*	*	*	*custos:ff	*
!	!	!	!	!	!	!	!	!LO:LB:g=original	!
1r	.	2d\	-to	4b-\	-fu-	2r	.	2ff\	-to
.	.	.	.	8a\	.	.	.	.	.
.	.	.	.	8g\	.	.	.	.	.
.	.	2f\	ſtas	2.a\	.	2d/	in	2dd\	ſtas
*	*	*custos:e	*	*	*	*	*	*	*
!	!	!LO:PB:g=original	!	!	!	!	!	!	!
=21-	=21-	=21-	=21-	=21-	=21-	=21-	=21-	=21-	=21-
1A	in	2.eny\	ſo-	.	.	0a	al-	2.cc#X\	ſo-
.	.	.	.	8g\	.	.	.	.	.
.	.	.	.	8f\	.	.	.	.	.
.	.	.	.	2e/	.	.	.	.	.
.	.	4e\	-li-	.	.	.	.	4cc#\	-li-
1d	al-	2f\	-o	1d	-ſus	.	.	1dd	-o
.	.	2f\	in	.	.	.	.	.	.
=22-	=22-	=22-	=22-	=22-	=22-	=22-	=22-	=22-	=22-
2c#X\	-to	1a	al-	2r	.	2e/	-to	1r	.
2d\	ſtas	.	.	2f\	in	1d	ſtas	.	.
2.G\	fo-	2g\	-to	1b-	al-	.	.	2r	.
.	.	2f\	ſtas	.	.	1dd\	fo-	2dd\	in
4G\	-lio-	.	.	.	.	.	.	.	.
=23-	=23-	=23-	=23-	=23-	=23-	=23-	=23-	=23-	=23-
1A	-o	2.e\	fo-	2a\	-to	.	.	1aa	al-
.	.	.	.	2A/	in	2cc#X\	-lio	.	.
.	.	4e\	-lio-	.	.	.	.	.	.
2r	.	1d	-o	1a	al-	2dd\	.	2ff#X\	-to
2D/	in	.	.	.	.	2a\	in	2ff#\	ſtas
=24-	=24-	=24-	=24-	=24-	=24-	=24-	=24-	=24-	=24-
1d	al-	1G	in	1.g	-to	1b-y	al-	2.gg\	ſo-
.	.	.	.	.	.	.	.	4gg\	-li-
2D/	-to	1d	al-	.	.	1.a	-to	1aa	-o
2d\	ſtas	.	.	2f\	ſtas	.	.	.	.
=25-	=25-	=25-	=25-	=25-	=25-	=25-	=25-	=25-	=25-
2.c#X\	ſo-	1A	-to	2.e/	ſo-	.	.	2r	.
.	.	.	.	.	.	2e/	ſtas	1a	ſtas
4c#\	-li-	.	.	4e/	-lio	.	.	.	.
*custos:d	*	*	*	*	*	*	*	*	*
!LO:LB:g=original	!	!	!	!	!	!	!	!	!
2d\	-o	2r	.	2d/	.	2.f\	fo-	.	.
2D/	ſtas	2a\	ſtas	1d/	ſtas	.	.	2.ffny\	ſo-
.	.	.	.	.	.	4g\	.	.	.
=26-	=26-	=26-	=26-	=26-	=26-	=26-	=26-	=26-	=26-
4D/	ſo-	2f\	ſo-	.	.	1.a	.	.	.
4E/	.	.	.	.	.	.	.	4eeny\	.
4F/	.	2f\	-li-	1A	ſo-	.	.	1dd	.
4G\	.	.	.	.	.	.	.	.	.
2A\	.	1e	-o	.	.	.	.	.	.
2A\	-li-	.	.	2a\	-li-	2e/	-li-	2cc#X\	-lio
*	*	*	*	*custos:f#	*	*custos:a	*	*	*
!	!	!	!	!LO:LB:g=original	!	!LO:LB:g=original	!	!	!
=27-	=27-	=27-	=27-	=27-	=27-	=27-	=27-	=27-	=27-
0D	-o	2r	.	1f#X	-o	2a\	-o	1dd	.
.	.	2d\	[et]	.	.	2a\	[et]	.	.
.	.	2.d\	ni-	2a\	[et]	2.f#X\	ni-	2r	.
.	.	.	.	2.a\	ni-	.	.	2dd\	[et]
.	.	4e\	-ti-	.	.	4g\	-ti-	.	.
=28-	=28-	=28-	=28-	=28-	=28-	=28-	=28-	=28-	=28-
00r	.	2f#X\	-do	.	.	2a\	-do	2.dd\	ni-
.	.	.	.	4a\	-ti-	.	.	.	.
!	!	!	!	!LO:N:acc=#	!	!	!	!	!
.	.	2g\	ſol	2bn\	-do	1g	ſol	.	.
.	.	.	.	.	.	.	.	4dd\	-ti-
.	.	2.c/	vt	1cc	ſol	.	.	2ee\	-do
.	.	.	.	.	.	2c/	vt	1gg\	ſol
.	.	4d\	in	.	.	.	.	.	.
=29-	=29-	=29-	=29-	=29-	=29-	=29-	=29-	=29-	=29-
.	.	2e\	a-	2c/	vt	2g\	in	.	.
.	.	2fny\	-xe-	4r	.	2.a\	a-	2ccny\	vt
.	.	.	.	4cc\	in	.	.	.	.
.	.	1d	-mi-	2.fny\	a-	.	.	2dd\	in
.	.	.	.	.	.	4g\	.	.	.
*	*	*	*	*	*	*	*	*custos:ff	*
!	!	!	!	!	!	!	!	!LO:LB:g=original	!
.	.	.	.	.	.	4a\	.	2.ff\	a-
.	.	.	.	4g\	.	4b-\	.	.	.
=30-	=30-	=30-	=30-	=30-	=30-	=30-	=30-	=30-	=30-
00r	.	2.c/	-cas	2a\	.	2ccny\	.	.	.
.	.	.	.	.	.	.	.	4ee\	.
.	.	.	.	2g\	-xe-	2.cc\	xe-	4ee\	.
.	.	8B-y/	.	.	.	.	.	8dd\	.
.	.	8A/	.	.	.	.	.	8cc\	.
*	*	*custos:G	*	*	*	*	*	*	*
!	!	!LO:LB:g=original	!	!	!	!	!	!	!
.	.	1G	.	2.g\	-mi-	.	.	2.dd\	.
.	.	.	.	.	.	4b-\	.	.	.
.	.	.	.	.	.	4b-\	.	.	.
.	.	.	.	8f\	.	8a\	.	4ee\	.
.	.	.	.	8e\	.	8g\	.	.	.
=31-	=31-	=31-	=31-	=31-	=31-	=31-	=31-	=31-	=31-
.	.	2r	.	2d/	.	2a\	.	2ff\	.
!	!	!	!	!	!	!LO:N:acc=#	!	!	!
.	.	2g\	ſol	2G/	cas	2bn\	.	2dd\	-xe-
.	.	2c/	vt	2r	.	2.cc\	-mi-	2ee\	-mi-
.	.	2e\	in	2g\	in	.	.	2.gg\	.
.	.	.	.	.	.	4b\	.	.	.
=32-	=32-	=32-	=32-	=32-	=32-	=32-	=32-	=32-	=32-
0r	.	2f\	a-	2a\	a-	2a\	.	.	.
.	.	.	.	.	.	.	.	4ff\	.
.	.	2d\	-xe-	2b-y\	-xe-	4g\	.	1ff	.
.	.	.	.	.	.	4fny\	.	.	.
.	.	1c	-mi-	1cc	-mi-	1g	.	.	.
.	.	.	.	.	.	.	.	2ee\	.
=33-	=33-	=33-	=33-	=33-	=33-	=33-	=33-	=33-	=33-
2r	.	1F	-cas	1a	-cas	2f\	-cas	1ff	-cas
2F/	non	.	.	.	.	2f\	Nõ(n)	.	.
*	*	*	*	*	*	*custos:e	*	*	*
!	!	!	!	!	!	!LO:LB:g=original	!	!	!
4G\	cur-	1r	.	1r	.	4e/	.	1r	.
4A\	.	.	.	.	.	8d/	.	.	.
.	.	.	.	.	.	8c/	.	.	.
4B-\	.	.	.	.	.	4d/	.	.	.
8A\	.	.	.	.	.	4e/	.	.	.
8G\	.	.	.	.	.	.	.	.	.
=34-	=34-	=34-	=34-	=34-	=34-	=34-	=34-	=34-	=34-
4A\	.	2r	.	2r	.	4f\	.	0r	.
4B-\	.	.	.	.	.	8e/	.	.	.
.	.	.	.	.	.	8d/	.	.	.
4cny\	.	2c/	Nõ(n)	2cc\	Nõ(n)	4e/	.	.	.
4A\	.	.	.	.	.	4f\	.	.	.
2G\	.	4d\	cur-	4b-\	cur-	2g\	.	.	.
.	.	4e\	.	8a\	.	.	.	.	.
.	.	.	.	8g\	.	.	.	.	.
2F/	-ru	4f\	.	4a\	.	2c/	.	.	.
.	.	8e\	.	8g\	.	.	.	.	.
.	.	8d\	.	8f\	.	.	.	.	.
*	*	*	*	*custos:g	*	*	*	*	*
!	!	!	!	!LO:LB:g=original	!	!	!	!	!
=35-	=35-	=35-	=35-	=35-	=35-	=35-	=35-	=35-	=35-
0r	.	4e\	.	4g\	.	2r	.	2r	.
.	.	4f\	.	4a\	.	.	.	.	.
.	.	2d\	.	2b-\	.	2f\	Nõ(n)	2ff\	Non
.	.	4c/	-ru	2cc\	-ru	4g\	cur-	4ee\	cur-
.	.	4c/	non	.	.	4a\	.	8dd\	.
.	.	.	.	.	.	.	.	8cc\	.
.	.	4g\	cu-	2r	.	4b-y\	.	4dd\	.
.	.	8f\	.	.	.	8a\	.	4ee\	.
.	.	8e\	.	.	.	8g\	.	.	.
=36-	=36-	=36-	=36-	=36-	=36-	=36-	=36-	=36-	=36-
2r	.	2d\	.	2r	.	4a\	.	4ff#X\	.
.	.	.	.	.	.	4b-\	.	2gg\	.
2D/	Te	2d\	-ru	2d/	te	2a\	.	.	.
.	.	.	.	.	.	.	.	4ff#X\	.
1E-X	dex-	2r	.	4G/	dex-	2g\	-ru	1gg	-ru
.	.	.	.	4A/	.	.	.	.	.
.	.	2G/	te	4B-/	.	2g\	te	.	.
.	.	.	.	4c/	.	.	.	.	.
=37-	=37-	=37-	=37-	=37-	=37-	=37-	=37-	=37-	=37-
2D/	-tra	1B-	dex-	4d/	.	2f\	dex-	0r	.
.	.	.	.	4c/	.	.	.	.	.
2G\	ſu-	.	.	4d/	.	2g\	-tra	.	.
.	.	.	.	4e/	.	.	.	.	.
*custos:F	*	*	*	*	*	*	*	*	*
!LO:LB:g=original	!	!	!	!	!	!	!	!	!
2F/	-o	2A/	-tra	1f	.	2a\	ſu-	.	.
2D/	for-	2d\	ſu-	.	.	2b-\	-o	.	.
=38-	=38-	=38-	=38-	=38-	=38-	=38-	=38-	=38-	=38-
2.F/	-tu-	2c/	-o	2f\	tra	2a\	for-	2r	.
.	.	2A/	for-	2F/	ſu-	2.a\	-tu-	2cc\	te
8Eny/	.	.	.	.	.	.	.	.	.
8D/	.	.	.	.	.	.	.	.	.
*	*	*custos:c	*	*	*	*	*	*	*
!	!	!LO:LB:g=original	!	!	!	!	!	!	!
1C	.	2.c/	-tu-	2G/	-o	.	.	1ee-X	dex-
.	.	.	.	.	.	4g\	.	.	.
.	.	.	.	2G/	for-	2.g\	.	.	.
.	.	4B-/	.	.	.	.	.	.	.
=39-	=39-	=39-	=39-	=39-	=39-	=39-	=39-	=39-	=39-
1D	-na	1A	.	1d	-tu-	.	.	1dd	-tra
.	.	.	.	.	.	4f#X\	.	.	.
.	.	.	.	.	.	2f#\	.	.	.
*	*	*	*	*	*	*custos:g	*	*custos:gg	*
!	!	!	!	!	!	!LO:LB:g=original	!	!LO:LB:g=original	!
0r	.	1G	-na,	2d/	-na,	2g\	-na,	2r	.
.	.	.	.	2d/	nec	2b-\	nec	2gg\	ſu-
=40-	=40-	=40-	=40-	=40-	=40-	=40-	=40-	=40-	=40-
.	.	00r	.	2d/	au-	2a\	au-	2ffny\	-o
.	.	.	.	2g\	-ra	2b-\	-ra	2dd\	for-
2r	.	.	.	4f\	Prin-	2a\	Prin-	1ff	-tu-
.	.	.	.	4g\	.	.	.	.	.
2d\	nec	.	.	4a\	.	2fny\	-ci-	.	.
.	.	.	.	4b-\	.	.	.	.	.
=41-	=41-	=41-	=41-	=41-	=41-	=41-	=41-	=41-	=41-
2c\	au-	.	.	2.cc\	.	2g\	-pis	2eeny\	-na,
*	*	*	*	*	*	*	*ij	*	*
2A\	-ra	.	.	.	.	2a\	nec	2ff\	nec
.	.	.	.	4cc\	-ci-	.	.	.	.
*	*	*	*	*custos:cc	*	*	*	*	*
!	!	!	!	!LO:LB:g=original	!	!	!	!	!
2.c\	Prin-	.	.	2cc\	-pis	2g\	au-	2ee\	au-
*	*	*	*	*	*ij	*	*	*	*
.	.	.	.	2cc\	nec	2e/	-ra	2cc\	-ra
4c\	-ci-	.	.	.	.	.	.	.	.
=42-	=42-	=42-	=42-	=42-	=42-	=42-	=42-	=42-	=42-
0G	-pis	1r	.	2b-\	au-	2.g\	Prin-	2.dd\	Prin-
.	.	.	.	2g\	-ra	.	.	.	.
.	.	.	.	.	.	4g\	-ci-	4dd\	-ci-
.	.	2r	.	2.b-\	Prin-	1g	-pis	1dd	-pis
.	.	2g\	nec	.	.	.	.	.	.
.	.	.	.	4b-\	-ci-	.	.	.	.
=43-	=43-	=43-	=43-	=43-	=43-	=43-	=43-	=43-	=43-
00r	.	2f\	au-	2a\	-pis	0r	.	2r	.
*	*	*	*	*	*Xij	*	*Xij	*	*ij
.	.	2d\	-ra	2b-\	nec	.	.	2dd\	nec
.	.	2.f\	Prin-	2a\	au-	.	.	2cc\	au-
.	.	.	.	2f\	-ra	.	.	2a/	-ra
.	.	8e\	.	.	.	.	.	.	.
.	.	8d\	.	.	.	.	.	.	.
=44-	=44-	=44-	=44-	=44-	=44-	=44-	=44-	=44-	=44-
.	.	2c/	.	4a\	Prin-	1r	.	2.cc\	Prin-
.	.	.	.	4g\	.	.	.	.	.
.	.	2c/	-ci-	1g	.	.	.	.	.
.	.	.	.	.	.	.	.	4b-/	-ci-
.	.	1d	-pis	.	.	2r	.	2a/	-pis
*	*	*	*	*	*	*	*	*	*Xij
.	.	.	.	2f#X\	-ci-	1d/	aut	2a/	aut
=45-	=45-	=45-	=45-	=45-	=45-	=45-	=45-	=45-	=45-
!	!	!	!	!	!	!	!	!LO:N:acc=#	!
1G	aut	2r	.	1g	-pis	.	.	2.bn/	ho-
.	.	2d\	aut	.	.	2.g\	ho-	.	.
.	.	.	.	.	.	.	.	4b/	-mi-
2.c\	ho-	2.e\	ho-	00r	.	.	.	2cc\	-num
.	.	.	.	.	.	4g\	-mi-	.	.
.	.	.	.	.	.	2g\	-num	2.cc\	ſuſ-
4c\	-mi-	4e\	-mi-	.	.	.	.	.	.
=46-	=46-	=46-	=46-	=46-	=46-	=46-	=46-	=46-	=46-
2c\	-num	2e\	-num	.	.	2.a\	ſuſ-	.	.
.	.	.	.	.	.	.	.	4cc\	-tu-
2.d\	ſuſ-	2.f#X\	ſuſ-	.	.	.	.	2a/	-lit
.	.	.	.	.	.	4a\	-tu-	.	.
.	.	.	.	.	.	2a\	-lit	1.dd	vl-
4d\	-tu-	4f#\	-tu-	.	.	.	.	.	.
2G\	-lit	2.g\	-lit	.	.	2.b-\	vl-	.	.
=47-	=47-	=47-	=47-	=47-	=47-	=47-	=47-	=47-	=47-
2.d\	vl-	.	.	.	.	.	.	.	.
.	.	8fny\	.	.	.	8a\	.	.	.
.	.	8e\	.	.	.	8g\	.	.	.
.	.	4d\	.	.	.	4f\	.	2dd\	-la
8c\	.	4e\	.	.	.	4g\	.	.	.
8B-\	.	.	.	.	.	.	.	.	.
2A\	.	2f\	.	0r	.	2a\	.	1cc	ma-
2c\	-la	2e\	vl-	.	.	2g\	-li-	.	.
*custos:B-	*	*custos:d	*	*	*	*	*	*	*
!LO:LB:g=original	!	!LO:LB:g=original	!	!	!	!	!	!	!
=48-	=48-	=48-	=48-	=48-	=48-	=48-	=48-	=48-	=48-
2.B-\	ma-	2d\	-la	.	.	0b-	-ma-	1f	-nus
.	.	2.f\	ma-	.	.	.	.	.	.
4A\	.	.	.	.	.	.	.	.	.
1G	.	.	.	1r	.	.	.	1r	.
.	.	8e\	.	.	.	.	.	.	.
.	.	8d\	.	.	.	.	.	.	.
.	.	2e\	.	.	.	.	.	.	.
*	*	*	*	*	*	*custos:a	*	*	*
!	!	!	!	!	!	!LO:LB:g=original	!	!	!
=49-	=49-	=49-	=49-	=49-	=49-	=49-	=49-	=49-	=49-
1F	-nus	1f	-nus	2r	.	2a\	-nus	2r	.
.	.	.	.	2fny\	ſed	2a\	ſed	2cc\	ſed
*	*	*	*	*	*	*	*	*custos:dd	*
!	!	!	!	!	!	!	!	!LO:LB:g=original	!
2r	.	2r	.	2B-/	tu-	2b-\	tu-	2dd\	tu-
2F/	ſed	2c/	ſed	4f\	-a	2a\	-a	4cc\	-a
.	.	.	.	4f\	te	.	.	4cc\	te
=50-	=50-	=50-	=50-	=50-	=50-	=50-	=50-	=50-	=50-
2G\	tu	2d\	tu-	2f\	vir-	2r	.	2b-y/	vir
4F/	-a	4c/	-a	4f\	-tus	4r	.	4a/	-tus
4A\	te	4c/	te	4c/	ad	2f\	ſed	4ff\	ad
2G\	vir-	2B-/	vir-	2g\	ſum-	.	.	2gg\	ſum-
.	.	.	.	.	.	4e/	tu-	.	.
4F/	-tus	4A/	-tus	4c/	-mũ(m)	4f\	-a	4aa\	-mũ(m)
4F/	ad	4f\	ad	4cc\	ad	4a\	te	4ff\	ad
*	*	*	*	*custos:cc	*	*	*	*	*
!	!	!	!	!LO:LB:g=original	!	!	!	!	!
=51-	=51-	=51-	=51-	=51-	=51-	=51-	=51-	=51-	=51-
2c\	ſum-	2g\	ſum-	2cc\	ſum-	2g\	vir-	2ee\	ſum-
2F/	-mum	4a\	-mũ(m)	4cc\	-mũ(m)	4f\	-tus	2ff\	-mũ(m)
*	*	*	*	*	*ij	*	*	*	*
.	.	4f\	ad	4a\	ad	4f\	ad	.	.
2r	.	2e\	ſum-	2g\	ſum-	2c/	ſum-	1r	.
2F/	e-	4f\	-mũ(m)	2.a\	-mũ(m)	2c/	-mũ(m)	.	.
.	.	4c/	e-	.	.	.	.	.	.
*	*	*	*	*	*Xij	*	*	*	*
=52-	=52-	=52-	=52-	=52-	=52-	=52-	=52-	=52-	=52-
1F	-ue-	2f\	-ue-	.	.	2r	.	4r	.
.	.	.	.	4a\	e-	.	.	4cc\	e-
.	.	4c/	-xit	2a\	-ue-	2f\	e-	2ff\	-ue-
.	.	4A/	ho-	.	.	.	.	.	.
2F/	-xit	2.a\	-no-	2A/	-xit	2.f\	-ue-	4cc\	-xit
.	.	.	.	.	.	.	.	4a/	ho-
2D/	ho-	.	.	1a\	ho-	.	.	2.dd\	-no-
.	.	8g\	.	.	.	4d/	-xit	.	.
.	.	8f\	.	.	.	.	.	.	.
=53-	=53-	=53-	=53-	=53-	=53-	=53-	=53-	=53-	=53-
1A	-no-	1e	.	.	.	2e/	ho-	.	.
.	.	.	.	.	.	.	.	8cc#X\	.
!	!	!	!	!	!	!	!	!LO:N:acc=#	!
.	.	.	.	.	.	.	.	8bn\	.
.	.	.	.	2e/	-no-	2a\	-no-	2cc#X\	.
0D	-rem	2d\	-rẽ(m)	2f#X\	-rem	2a\	-rem	1dd	-rem
.	.	1d\	Qui-	1f#\	Qui-	1a\	Qui-	.	.
=54-	=54-	=54-	=54-	=54-	=54-	=54-	=54-	=54-	=54-
.	.	.	.	.	.	.	.	2r	.
.	.	2d\	-que	2f#yX\	-que	2a\	-que	1dd	Qui-
*	*	*custos:G	*	*	*	*	*	*	*
!	!	!LO:LB:g=original	!	!	!	!	!	!	!
1r	.	4G/	ſa-	1g	ſac-	1b-	ſac-	.	.
.	.	4A/	.	.	.	.	.	.	.
.	.	4B-/	.	.	.	.	.	2dd\	-q;(ue)
.	.	4c/	.	.	.	.	.	.	.
=55-	=55-	=55-	=55-	=55-	=55-	=55-	=55-	=55-	=55-
1r	.	1d	.	2fny\	-ro	1a	-cro	1ff	ſac-
*	*	*	*	*	*ij	*	*	*	*
.	.	.	.	1d	ho-	.	.	.	.
2r	.	2A/	-cro	.	.	2r	.	1ee	-ro
1A\	Qui-	2e\	Qui-	4c#X/	-no-	1a\	Qui-	.	.
!	!	!	!	!LO:N:acc=#	!	!	!	!	!
.	.	.	.	4Bn/	-rem	.	.	.	.
=56-	=56-	=56-	=56-	=56-	=56-	=56-	=56-	=56-	=56-
.	.	2e\	-que	2c#X/	Qui-	.	.	00r	.
2A\	-que	2.f\	ſa-	2c#/	-que	2a\	-que	.	.
*custos:B-	*	*	*	*	*	*custos:d	*	*	*
!LO:LB:g=original	!	!	!	!	!	!LO:LB:g=original	!	!	!
1B-	ſac-	.	.	1d	ſac-	4d/	ſa-	.	.
.	.	4e\	.	.	.	4e/	.	.	.
.	.	2.d\	.	.	.	4f\	.	.	.
.	.	.	.	.	.	4g\	.	.	.
=57-	=57-	=57-	=57-	=57-	=57-	=57-	=57-	=57-	=57-
1A	-cro	.	.	2e/	-ro	2a\	.	.	.
.	.	4c#X/	.	.	.	.	.	.	.
*	*	*	*	*	*Xij	*	*	*	*
.	.	2c#/	.	2a\	e-	2e/	-cro	.	.
*	*	*	*	*lig	*	*	*	*	*
*	*	*	*	*col	*	*	*	*	*
2r	.	2d\	-cro	1f#X	-the-	2a\	e-	.	.
2F/	e-	2A/	e-	.	.	2.d/	-the-	.	.
=58-	=58-	=58-	=58-	=58-	=58-	=58-	=58-	=58-	=58-
*	*	*	*	*	*	*	*	*	*
2.G\	-thę-	2.B-/	-the-	2.g\	.	.	.	0r	.
.	.	.	.	.	.	4d/	-re-	.	.
.	.	.	.	.	.	2d/	-as	.	.
*	*	*	*	*Xlig	*	*	*	*	*
*	*	*	*	*Xcol	*	*	*	*	*
4G\	-re-	4B-/	-ras	4g\	-re-	.	.	.	.
*	*	*	*	*custos:a	*	*	*	*	*
!	!	!	!	!LO:LB:g=original	!	!	!	!	!
2F/	-as	2cny/	.	2a\	-as	2.f\	in-	.	.
2.B-\	in-	2.d\	in-	2.b-\	in-	.	.	.	.
.	.	.	.	.	.	4f\	-di-	.	.
=59-	=59-	=59-	=59-	=59-	=59-	=59-	=59-	=59-	=59-
.	.	.	.	.	.	1f	-cat	1r	.
4B-\	-di-	4d\	-di-	4b-\	-di-	.	.	.	.
2B-\	-cat	2d\	-cat	2b-\	-cat	.	.	.	.
*	*	*	*	*	*	*	*	*custos:gg	*
!	!	!	!	!	!	!	!	!LO:LB:g=original	!
1E-X	ig-	1e-X	ig-	2b-\	ig-	2g\	ig-	2r	.
.	.	.	.	1g\	-ne	2b-\	-ne	2.gg\	in-
=60-	=60-	=60-	=60-	=60-	=60-	=60-	=60-	=60-	=60-
1C	-ne	2eny\	-ne	.	.	2cc\	vi-	.	.
.	.	.	.	.	.	.	.	4gg\	di-
.	.	2.e\	vi-	2.cc\	vi-	2g\	-as	2gg\	-cat
*lig	*	*	*	*	*	*	*	*	*
1G	vi-	.	.	.	.	1r	.	2gg\	ig-
.	.	4d\	.	4b-\	.	.	.	.	.
*	*	*custos:d	*	*	*	*	*	*	*
!	!	!LO:LB:g=original	!	!	!	!	!	!	!
.	.	4d\	.	2.b-\	.	.	.	2dd\	-ne
.	.	8c/	.	.	.	.	.	.	.
.	.	8B-/	.	.	.	.	.	.	.
=61-	=61-	=61-	=61-	=61-	=61-	=61-	=61-	=61-	=61-
1F	.	1c	.	.	.	2r	.	1ff	vi-
.	.	.	.	4a\	.	.	.	.	.
.	.	.	.	2a\	.	2.f\	in-	.	.
*Xlig	*	*	*	*	*	*	*	*	*
1BB-	-as	2B-/	-as	2b-\	-as	.	.	2dd\	-as
.	.	.	.	.	.	4f\	-di-	.	.
.	.	2.B-/	ig-	1b-\	ig-	2d/	-cat	2.dd\	ig-
=62-	=62-	=62-	=62-	=62-	=62-	=62-	=62-	=62-	=62-
1r	.	.	.	.	.	4f\	ig-	.	.
.	.	4G/	-ne	.	.	4g\	-ne	4dd\	-ne
.	.	2d\	vi-	2a\	-ne	2f\	vi-	2dd\	vi-
2r	.	4.A/	-as	2a\	vi-	4e/	-as	2cc#X\	-as
.	.	.	.	.	.	4e/	Sic	.	.
!	!	!LO:N:acc=#	!	!	!	!	!	!	!
.	.	8Bn/	.	.	.	.	.	.	.
2A\	Sic	2c#X/	.	2e/	-as	2a\	quo-	2ee\	Sic
=63-	=63-	=63-	=63-	=63-	=63-	=63-	=63-	=63-	=63-
2d\	quo-	1r	.	1r	.	4a\	-que	2ff\	quo-
.	.	.	.	.	.	4f\	vir	.	.
4c\	-que	.	.	.	.	2g\	iuſ-	4ee\	-q;(ue)
4B-\	vir	.	.	.	.	.	.	4dd\	vir
2A\	iuſ-	4r	.	2e/	Sic	1a	-tus	2cc#X\	iuſ-
.	.	2A/	Sic	.	.	.	.	.	.
2D/	-tus	.	.	2fny\	quo-	.	.	2dd\	-tus
.	.	4a\	quo-	.	.	.	.	.	.
*	*ij	*	*	*	*	*custos:a	*ij	*	*ij
!	!	!	!	!	!	!LO:LB:g=original	!	!	!
=64-	=64-	=64-	=64-	=64-	=64-	=64-	=64-	=64-	=64-
2r	.	4g\	-que	4e/	-que	2r	.	2r	.
.	.	4f\	vir	4d/	vir	.	.	.	.
2A\	Sic	2e\	iuſ-	2c#X/	iuſ-	4r	.	2a/	Sic
.	.	.	.	.	.	4a\	Sic	.	.
*custos:B-	*	*	*	*	*	*	*	*	*
!LO:LB:g=original	!	!	!	!	!	!	!	!	!
2B-\	quo-	2d\	-tus	2d/	-tus	2.f\	quo-	2dd\	quo-
4A\	-que	2r	.	2r	.	.	.	4ccny\	-q;(ue)
4G\	vir	.	.	.	.	4g\	-que	4b-y/	vir
=65-	=65-	=65-	=65-	=65-	=65-	=65-	=65-	=65-	=65-
2F#X/	iuſ-	0d	quon-	2r	.	2a\	vir	2a/	iuſ-
2G\	-tus	.	.	2.g\	quon-	2b-\	iuſ-	2d/	-tus
*	*Xij	*	*	*	*	*	*	*	*Xij
2r	.	.	.	.	.	1a	-tus	1dd	quon-
.	.	.	.	4f#X\	-dam	.	.	.	.
*	*	*	*	*custos:f#	*	*	*Xij	*	*
!	!	!	!	!LO:LB:g=original	!	!	!	!	!
2D/	quon-	.	.	2f#X\	du-	.	.	.	.
=66-	=66-	=66-	=66-	=66-	=66-	=66-	=66-	=66-	=66-
!	!	!	!	!	!	!	!	!LO:N:acc=#	!
2G\	-dam	2d\	-dã(m)	2g\	-ce	0r	.	2bn/	-dã(m)
2.G\	du-	2.d\	du-	2g\	fre-	.	.	2.b/	du-
.	.	.	.	2g\	-tus	.	.	.	.
4C/	-ce	4e\	-ce	.	.	.	.	4cc\	-ce
2Fny/	fre-	2f\	fre-	2a\	e-	.	.	4cc\	fre-
.	.	.	.	.	.	.	.	2cc\	-tus
=67-	=67-	=67-	=67-	=67-	=67-	=67-	=67-	=67-	=67-
4G\	-tus	4e\	-tus	2g\	-o-	2r	.	.	.
4G\	e-	4d\	e-	.	.	.	.	4b-y/	e-
*	*	*custos:c#	*	*	*	*	*	*custos:a	*
!	!	!LO:LB:g=original	!	!	!	!	!	!LO:LB:g=original	!
2A\	-o-	2c#X/	-o-	2e/	-dem	2a\	eſt	2a/	-o-
1D	-dem	2d\	-dem	1r	.	2f\	in	1a	-dẽ(m)
.	.	2d\	eſt	.	.	2f\	flam-	.	.
=68-	=68-	=68-	=68-	=68-	=68-	=68-	=68-	=68-	=68-
0r	.	2B-y/	in	00r	.	2.b-\	-mi-	1dd	eſt
.	.	2B-/	flam-	.	.	.	.	.	.
.	.	.	.	.	.	4b-\	-fe-	.	.
.	.	2.e-X\	-mi-	.	.	2g\	-ris	2b-/	in
.	.	.	.	.	.	2.g\	veC-	2b-/	Ham-
.	.	4e-\	-fe-	.	.	.	.	.	.
=69-	=69-	=69-	=69-	=69-	=69-	=69-	=69-	=69-	=69-
1r	.	1cny	-ris	.	.	.	.	2.ee-X\	-mi-
.	.	.	.	.	.	4g\	-tus	.	.
.	.	.	.	.	.	1cc	ad	.	.
.	.	.	.	.	.	.	.	4ee-\	-fe-
1G	eſt	2r	.	.	.	.	.	1dd	-ris
.	.	2.d\	veC-	.	.	2b-\	aſ-	.	.
=70-	=70-	=70-	=70-	=70-	=70-	=70-	=70-	=70-	=70-
2F/	in	.	.	2r	.	4a\	-tra	2r	.
.	.	4d\	-tus	.	.	4g\	.	.	.
2F/	flam-	2c/	ad	2a\	eſt	4f\	.	2.ff\	veC-
.	.	.	.	.	.	4e/	.	.	.
2.B-\	-mi-	2d\	aſ-	2fny\	in	2d/	.	.	.
.	.	.	.	.	.	.	.	4ff\	-tus
.	.	2d\	-tra	2f\	flam-	1b-\	ro-	2dd\	ad
4B-\	-fe-	.	.	.	.	.	.	.	.
=71-	=71-	=71-	=71-	=71-	=71-	=71-	=71-	=71-	=71-
1G	-ris	1B-	ro-	2.b-\	-mi-	.	.	2dd\	aſ-
.	.	.	.	.	.	2g\	tis	2eeny\	-tra
.	.	.	.	4b-\	-fe-	.	.	.	.
*custos:F	*	*	*	*	*	*	*	*	*
!LO:LB:g=original	!	!	!	!	!	!	!	!	!
2.F/	ve-	2c/	-tis	2.a\	-ris	1r	.	0ff	ro-
.	.	2A/	eſt	.	.	.	.	.	.
4G\	.	.	.	4b-\	.	.	.	.	.
=72-	=72-	=72-	=72-	=72-	=72-	=72-	=72-	=72-	=72-
4A\	.	2F/	in	1cc	.	2r	.	.	.
4B-\	.	.	.	.	.	.	.	.	.
2.A\	.	2F/	flam-	.	.	2a\	Eſt	.	.
.	.	2.B-/	-mi-	1r	.	2f\	in	0dd	-tis
4G\	.	.	.	.	.	.	.	.	.
1G\	.	.	.	.	.	2g\	flam-	.	.
.	.	4B-/	-fe-	.	.	.	.	.	.
*	*	*	*	*	*	*custos:a	*	*	*
!	!	!	!	!	!	!LO:LB:g=original	!	!	!
=73-	=73-	=73-	=73-	=73-	=73-	=73-	=73-	=73-	=73-
.	.	2A/	-ris	2r	.	2.a\	-mi-	.	.
2F#X/	.	2d\	veC-	2a\	veC-	.	.	.	.
.	.	.	.	.	.	4a\	-fe-	.	.
2G\	Ctus	2B-/	-tus	2g\	-tus	1d	-ris	2r	.
2D/	ad	2A/	ad	2f\	ad	.	.	2dd\	eſt
*	*	*custos:G	*	*	*	*	*	*	*
!	!	!LO:LB:g=original	!	!	!	!	!	!	!
=74-	=74-	=74-	=74-	=74-	=74-	=74-	=74-	=74-	=74-
2.E-X/	aſ-	2G/	aſ-	1.e-X	aſ-	2.g\	ve-	2b-/	in
.	.	1B-	-tra	.	.	.	.	2b-/	flam-
4D/	-tra	.	.	.	.	8a\	.	.	.
.	.	.	.	.	.	8b-\	.	.	.
1C	ro-	.	.	.	.	1cc	.	2.ee-X\	-mi-
.	.	2A/	ro-	2cny/	-tra	.	.	.	.
.	.	.	.	.	.	.	.	4ee-\	-fe-
=75-	=75-	=75-	=75-	=75-	=75-	=75-	=75-	=75-	=75-
2.BB-/	-tis	1B-	-tis	2.d/	ro-	2f\	-Ctus	00dd	-ris
.	.	.	.	.	.	2f\	ad	.	.
4C/	.	.	.	4eny/	.	.	.	.	.
*	*	*	*	*custos:f	*	*	*	*	*
!	!	!	!	!LO:LB:g=original	!	!	!	!	!
00D	.	2r	.	4f\	.	4d/	a-	.	.
.	.	.	.	4e/	.	4e/	.	.	.
.	.	2A/	Eſt	4d/	.	4f\	.	.	.
.	.	.	.	4e/	.	4g\	.	.	.
=76-	=76-	=76-	=76-	=76-	=76-	=76-	=76-	=76-	=76-
.	.	2F/	in	4f\	.	4a\	.	.	.
.	.	.	.	4g\	.	4g\	.	.	.
*	*	*	*	*lig	*	*	*	*	*
*	*	*	*	*col	*	*	*	*	*
.	.	2F/	flam-	1a	.	4f\	.	.	.
.	.	.	.	.	.	4e/	.	.	.
.	.	2.B-/	-mi-	.	.	2f\	.	.	.
.	.	.	.	2.g\	.	2g\	-ſtra	.	.
.	.	4B-/	-fe-	.	.	.	.	.	.
*	*	*	*	*Xlig	*	*	*	*	*
*	*	*	*	*Xcol	*	*	*	*	*
=77-	=77-	=77-	=77-	=77-	=77-	=77-	=77-	=77-	=77-
.	.	2A/	-ris	.	.	1a	ro-	1dd	veC-
.	.	.	.	4f#X\	.	.	.	.	.
.	.	1d	veC-	2f#\	.	.	.	.	.
1G	ad	.	.	2g\	-tis	1g	-tis	2b-/	-tus
.	.	1B-/	-tus	2d/	ad	.	.	2dd\	ad
=78-	=78-	=78-	=78-	=78-	=78-	=78-	=78-	=78-	=78-
1E-X	aſ-	.	.	2e-X/	aſ-	1g	ad	2.gg\	aſ-
.	.	1G	ad	2B-y/	-tra	.	.	.	.
.	.	.	.	.	.	.	.	4ff\	-tra
1C	-tra	.	.	2r	.	2.cc\	a-	1ee-X	ro-
.	.	1c\	aſ-	2g\	ad	.	.	.	.
.	.	.	.	.	.	4b-\	.	.	.
=79-	=79-	=79-	=79-	=79-	=79-	=79-	=79-	=79-	=79-
0D	ro-	.	.	2f#X\	aſ-	2a\	.	00.dd	-tis.
.	.	2B-/	-tra	2g\	-tra	1g	-ſtra	.	.
.	.	1A	ro-	1a	ro-	.	.	.	.
.	.	.	.	.	.	2f#X\	ro-	.	.
=80-	=80-	=80-	=80-	=80-	=80-	=80-	=80-	=80-	=80-
!	!	!	!	!LO:N:acc=#	!	!	!	!	!
00G	tis.	00G	-tis.	00bn	-tis.	00g	-tis.	.	.
==	==	==	==	==	==	==	==	==	==
*-	*-	*-	*-	*-	*-	*-	*-	*-	*-
!!!system-decoration: [(s1,s2,s3,s4,s5)]
!!!ENC: Filip Voros
!!!END: 2022-07-12
!!!ENC: Natalia Wrzos
!!!END: 2022-08-04
